modules/zondicons/icons/playlist.svg

<?xml version="1.0" encoding="UTF-8" standalone="no"?>
<svg width="20px" height="20px" viewBox="0 0 20 20" version="1.1" xmlns="http://www.w3.org/2000/svg" xmlns:xlink="http://www.w3.org/1999/xlink">
    <!-- Generator: Sketch 3.7.2 (28276) - http://www.bohemiancoding.com/sketch -->
    <title>playlist</title>
    <desc>Created with Sketch.</desc>
    <defs></defs>
    <g id="Page-1" stroke="none" stroke-width="1" fill="none" fill-rule="evenodd">
        <g id="playlist" fill="#000000">
            <path d="M14,14.1707057 C13.6872211,14.0601542 13.3506354,14 13,14 L11,14 C9.34314575,14 8,15.3431458 8,17 C8,18.6568542 9.34314575,20 11,20 L13,20 C14.6568542,20 16,18.6568542 16,17 L16,4.66666667 L20,4 L20,0 L14,1 L14,3.5 L14,14.1707057 Z M0,3 L12,3 L12,5 L0,5 L0,3 Z M0,7 L12,7 L12,9 L0,9 L0,7 Z M0,11 L12,11 L12,13 L0,13 L0,11 Z M0,15 L6,15 L6,17 L0,17 L0,15 Z" id="Combined-Shape"></path>
        </g>
    </g>
</svg>

<svg width="20" height="20" viewBox="0 0 20 20" xmlns="http://www.w3.org/2000/svg"><path d="M14 14.17c-.313-.11-.65-.17-1-.17h-2a3 3 0 0 0 0 6h2a3 3 0 0 0 3-3V4.667L20 4V0l-6 1v13.17zM0 3h12v2H0V3zm0 4h12v2H0V7zm0 4h12v2H0v-2zm0 4h6v2H0v-2z" fill="#000" fill-rule="evenodd"/></svg>
